X:1
T:Scotsman
M:4/4
Q:1/4=180
K:C
E2E2E2E2|E2F4F2|FG3GG3|B,2C6|-CEE2EE3|-EEFF2F3|
F2G2G2GE|-E2D6|A2A2AA3|A2AB2c3|cc2GG2GE|-E2D5C|
C2C2CD3|D2E2EF3|F2G2G2ED|C2C6|-C2A2A2AA|AAA2Bc3|
-c2c2G2GG|E2D6|D2C2CD3|D2E2EF3|F2G2G2ED|C2C11/2||

